X:111
T:Chase Me Charlie - A Kerry Slide
M:12/8
L:1/8
K:G
"G"g2 d e2 d g2 d e2 d|B3 BAG "D"A3 A3|"G"g2 d e2 d g2 d e2 d|\
B3 "D" ABA "G" G3 G3:|
A|"G"B3 BAB GBd "C"e2 g|"G"B3 BAG "D"A3 A2 A|"G"B3 BAB GBd "C"e2 g|\
B3"D" ABA"G" G3 G2:|
